public/flags/CN.svg

<svg fill="none" height="53" viewBox="0 0 61 53" width="61" xmlns="http://www.w3.org/2000/svg" xmlns:xlink="http://www.w3.org/1999/xlink"><mask id="a" height="43" maskUnits="userSpaceOnUse" width="59" x="1" y="3"><rect fill="#fff" height="42.5" rx="4.24286" width="59" x="1" y="3"/></mask><rect fill="#fff" height="42.5" rx="4.24286" width="59" x="1" y="3"/><g mask="url(#a)"><path d="m1 3h59v42.5h-59z" fill="#f1361d"/><g clip-rule="evenodd" fill="#ffdc42" fill-rule="evenodd"><path d="m22.2246 9.58911 2.0407.35085 1.5305 1.40564.3479-2.05791 1.3938-1.54346-2.0406-.35085-1.5305-1.40568-.3479 2.05794zm5.466 7.19799 1.7683-1.0854 2.0696.0483-1.0762-1.7833.0478-2.0871-1.7683 1.0853-2.0696-.0482 1.0763 1.7833zm-2.3988 11.651-1.7297 1.1469-.0244-2.0875-1.1373-1.7443 2.07-.0246 1.7297-1.1469.0244 2.0874 1.1373 1.7444zm1.5021-5.3963 2.0575-.23 1.8554.9258-.228-2.0749.918-1.8712-2.0575.23-1.8554-.9258.228 2.075z"/><path d="m15.0477 20.4817-4.9542 3.5616 1.828-5.8523-4.88984-3.651 6.08394-.0552 1.9321-5.81814 1.9321 5.81814 6.084.0552-4.8898 3.651 1.8279 5.8523z"/></g></g></svg>

<svg width="61" height="53" viewBox="0 0 61 53" fill="none" xmlns="http://www.w3.org/2000/svg">
<rect x="1" y="3" width="59" height="42.5" rx="4.24286" fill="white"/>
<mask id="mask0" mask-type="alpha" maskUnits="userSpaceOnUse" x="1" y="3" width="59" height="43">
<rect x="1" y="3" width="59" height="42.5" rx="4.24286" fill="white"/>
</mask>
<g mask="url(#mask0)">
<rect x="1" y="3" width="59" height="42.5" fill="#F1361D"/>
<path fill-rule="evenodd" clip-rule="evenodd" d="M22.2246 9.58911L24.2653 9.93996L25.7958 11.3456L26.1437 9.28769L27.5375 7.74423L25.4969 7.39338L23.9664 5.9877L23.6185 8.04564L22.2246 9.58911ZM27.6906 16.7871L29.4589 15.7017L31.5285 15.75L30.4523 13.9667L30.5001 11.8796L28.7318 12.9649L26.6622 12.9167L27.7385 14.7L27.6906 16.7871ZM25.2918 28.4381L23.5621 29.585L23.5377 27.4975L22.4004 25.7532L24.4704 25.7286L26.2001 24.5817L26.2245 26.6691L27.3618 28.4135L25.2918 28.4381ZM26.7939 23.0418L28.8514 22.8118L30.7068 23.7376L30.4788 21.6627L31.3968 19.7915L29.3393 20.0215L27.4839 19.0957L27.7119 21.1707L26.7939 23.0418Z" fill="#FFDC42"/>
<path fill-rule="evenodd" clip-rule="evenodd" d="M15.0477 20.4817L10.0935 24.0433L11.9215 18.191L7.03166 14.54L13.1156 14.4848L15.0477 8.66666L16.9798 14.4848L23.0638 14.54L18.174 18.191L20.0019 24.0433L15.0477 20.4817Z" fill="#FFDC42"/>
</g>
</svg>
